icons/imdb.svg

<svg xmlns="http://www.w3.org/2000/svg" viewBox="0 0 512 512"><path d="M294.505 217.499c-1.3-.7-3.801-.999-7.401-.999v77.899c4.8 0 7.8-.9 8.901-2.7 1.099-1.8 1.699-6.6 1.699-14.5v-46c0-5.399-.199-8.8-.6-10.3a5.3 5.3 0 0 0-.947-1.969 5.4 5.4 0 0 0-1.652-1.431M384 255.598v28.101c0 5.299-.3 8.699-.79 9.999-.5 1.4-3.2 2.1-5.01 2.1-1.79 0-4.29-.799-4.89-2.1v-47.6c.5-1.199 3.2-2 4.89-2 1.71 0 4.21.901 4.81 2.301.69 1.499.99 4.599.99 9.199" style="fill:currentcolor" /><path d="M44.989 176.399a26.38 26.38 0 0 1 16.294-24.397A26.4 26.4 0 0 1 71.39 150H440.6a26.37 26.37 0 0 1 18.67 7.722 26.5 26.5 0 0 1 5.73 8.569c1.31 3.205 2 6.641 2 10.108v158.2c0 3.468-.69 6.903-2 10.108a26.5 26.5 0 0 1-5.73 8.569 26.5 26.5 0 0 1-8.57 5.723A26.4 26.4 0 0 1 440.6 361H71.39a26.4 26.4 0 0 1-10.107-2.003 26.4 26.4 0 0 1-14.291-14.291 26.4 26.4 0 0 1-2.003-10.107zm52.801 138.4h33.001V196.2H97.79zm95.902-63.2 7.399-55.399h41.701v118.699h-27.9l-.1-80.099-11.2 80.099h-19.9L171.991 236.5l-.1 78.399h-28V196.2h41.4c1.2 7.199 2.5 15.599 3.801 25.299zm62.301 63.2V196.2h51.5a21.063 21.063 0 0 1 21.101 20.9v76.799a20.9 20.9 0 0 1-1.62 8.039 20.92 20.92 0 0 1-19.481 12.861zm136.797-88.9h-2.1a22.06 22.06 0 0 0-17.4 8.4V196.2h-31.596v117.199h29.596l1.9-7.299a21.7 21.7 0 0 0 7.7 6.485 21.7 21.7 0 0 0 9.8 2.314h2.1c11.8 0 21.4-9.3 21.4-20.7V246.6c0-11.5-9.5-20.701-21.4-20.701" style="fill:currentcolor;fill-rule:evenodd;clip-rule:evenodd" /></svg>

<svg width="512" height="512" viewBox="0 0 512 512" fill="none" xmlns="http://www.w3.org/2000/svg">
<path d="M294.505 217.499C293.205 216.799 290.704 216.5 287.104 216.5V294.399C291.904 294.399 294.904 293.499 296.005 291.699C297.104 289.899 297.704 285.099 297.704 277.199V231.199C297.704 225.8 297.505 222.399 297.104 220.899C296.929 220.184 296.606 219.513 296.157 218.93C295.71 218.345 295.147 217.858 294.505 217.499ZM384 255.598V283.699C384 288.998 383.7 292.398 383.21 293.698C382.71 295.098 380.01 295.798 378.2 295.798C376.41 295.798 373.91 294.999 373.31 293.698V246.098C373.81 244.899 376.51 244.098 378.2 244.098C379.91 244.098 382.41 244.999 383.01 246.399C383.7 247.898 384 250.998 384 255.598Z" fill="white"/>
<path fill-rule="evenodd" clip-rule="evenodd" d="M44.9888 176.399C44.9846 171.176 46.5308 166.07 49.4315 161.727C52.3322 157.383 56.4568 153.999 61.2828 152.002C64.4876 150.677 67.922 149.997 71.3898 150H440.6C444.067 149.997 447.5 150.677 450.704 152.002C453.907 153.327 456.818 155.271 459.27 157.722C461.722 160.176 463.669 163.087 465 166.291C466.31 169.496 467 172.932 467 176.399V334.599C467 338.067 466.31 341.502 465 344.707C463.669 347.911 461.722 350.822 459.27 353.276C456.815 355.726 453.903 357.671 450.7 358.999C447.497 360.322 444.065 361.002 440.6 361H71.3898C67.9219 361.003 64.4875 360.322 61.2828 358.997C58.0788 357.67 55.1677 355.725 52.7156 353.273C50.2635 350.821 48.3185 347.91 46.9918 344.706C45.6668 341.501 44.9861 338.067 44.9888 334.599V176.399ZM97.7898 314.799H130.791V196.2H97.7898V314.799ZM193.692 251.599L201.091 196.2H242.792V314.899H214.892L214.792 234.8L203.592 314.899H183.692L171.991 236.5L171.891 314.899H143.891V196.2H185.291C186.491 203.399 187.791 211.799 189.092 221.499L193.692 251.599ZM255.993 314.799V196.2H307.493C313.058 196.19 318.4 198.382 322.354 202.298C326.307 206.214 328.551 211.535 328.594 217.1V293.899C328.59 296.659 328.039 299.392 326.974 301.938C325.372 305.775 322.664 309.048 319.194 311.338C315.724 313.629 311.65 314.834 307.493 314.799H255.993ZM392.79 225.899H390.69C387.342 225.887 384.036 226.637 381.021 228.093C378.007 229.548 375.363 231.67 373.29 234.299V196.2H341.694V313.399H371.29L373.19 306.1C375.213 308.835 377.85 311.057 380.89 312.585C383.93 314.114 387.287 314.907 390.69 314.899H392.79C404.59 314.899 414.19 305.599 414.19 294.199V246.6C414.19 235.1 404.69 225.899 392.79 225.899Z" fill="white"/>
</svg>
